X:1
T:My Bonnie Wee Hen
M:6/8
L:1/8
K:C
 G2 G d2 d| e2 e G2 B| d2 e d2 d| G6| G2 G d2 d| e2 e G2 B| d2 B G2 G|\
 G6| e2 e e2 B| d2 d d2 d| G2- G B2- G| E6| G2 G d2 d| e2 E G2 B| d2 B G2 G|\
 G6|
